X:897
T:John Joe Casey's
R:reel
Z:id:hn-reel-897
M:C|
L:1/8
K:D
eA~A2 ABcd | edef ~g3e | fd~d2 Ad~d2 | fgaf gfed |
eA~A2 ABcd | edef ~g3e | fd~d2 edBd |1 Addc defd :|2 Addc defa ||
|: ~b3a gabg | ad~d2 Adfd | geed efga | baag a2ga |
~b3a gabg | ad~d2 Adfd | g2eg fedB |1 Addc defa :|2 Addc defd ||  

